X: 1
T: Tatter Jack Walsh
M: 6/8
L: 1/8
R: jig
K: G
V: Melody
ag |: "D" ~f3 ded | "C" cAB ~c2A | "D" dcA "C" ~G3 | "D" Add "C" efg |
"D" ~f3 ded | "C" cAB ~c2A | "D" dcA "C" ~G3 |1 "D" Ad^c dag :|2 "D" Ad^c dBA ||
|: "D" dfa afd | "D" dfa agf | "C" ~g3 ged | "A" ^cde ~g3 |
"D" afd fed | "C" cAB ~c2A | "D" dcA "C" ~G3 |1 "D" Ad^c dBA :|2 "D" Ad^c d3 ||

